X:196
T:{\AA}kermans polska
R:sl\"angpolska
C:fl\"ojtspelaren Lars Niclas {\AA}kerman (1781-1852) fr{\aa}n Sindarve i Hemse
A:Gotland
Z:id:hn-sp-196
M:3/4
L:1/16
K:D
D2DE FEFG A2Bc | dcde fefg a2f2 | gagf efed cdcB | ABcd edcB AGFE |
D2DE FEFG A2Bc | dcde fefg a2f2 | gagf efed cdcB | ABcd edcB AGFE |
DFAF DFAF EGAG | DFAF DFAF EGAG | FAdc BAgf e3d | cABc c2d2 d4 :|
|: e2cA EAcA eAcA | f2dA FAdA fAdA | e2cA EAcA eAcA | f2dA FAdA fAdA |
DFAF DFAF EGAG | DFAF DFAF EGAG | FAdc BAgf e3d | cABc c2d2 d4 :|

